azure-patterns/svg-simplified-management.svg

<svg xmlns="http://www.w3.org/2000/svg" viewBox="0 0 37.988 37.988"><path d="M35.066 20.455H20.455v14.611h14.611V20.455M17.533 35.066V20.455H2.922v14.611h14.611m2.922-32.144v14.611h14.611V2.922H20.455M2.922 17.533h14.611V2.922H2.922v14.611m35.066 20.455H0V0h37.988z" fill="#0072c6"/></svg>

<svg xmlns="http://www.w3.org/2000/svg" viewBox="0 0 37.988 37.988">
                                
                            
  <path d="M35.066,20.455H20.455V35.066H35.066V20.455M17.533,35.066V20.455H2.922V35.066H17.533M20.455,2.922V17.533H35.066V2.922H20.455M2.922,17.533H17.533V2.922H2.922V17.533M37.988,37.988H0V0H37.988Z" fill="#0072c6"></path>
</svg>
